X:147 
T:New Post Office (reel), The 
F:file ID: cre.5/147new_post
B:CRE5.146 (Oifig Nua an Phoist)
M:4/4
Q:180
R:reel
K:D
DFEF D2Ad|cAGE EDGE|DFEF D2Ad|cAGB ADD2|
"5"DFEF D2d2|cAG2 EFGE|Addc dfed|cAGB ADD2||
"9"f2fe fage|fdge afge|f2fd fage|faec Add2|
"13"f2f2 fage|fdge afge|(3fga ge dfed|dcAG EFGE||
"17"D2FA dfed|dcAG EFGE|D2FA dfed|cAGB ADD2|
"21"D2FA d2ed|dcAG EFGE|Addc dfed|cAGB ADD2|]

%%%

